X: 41444
T: Two For Joy
R: slip jig
M: 9/8
K: Dmajor
M:7/8
|:dA de efd|fg gf ffd|dA de efd|f/g/a gf f z d|
G2 Bc def|e2 ed efd|G2 Bc def|ee ag fgf:|
|:Ad d/c/d edd|d z dc edA|d z ga a2 a|d z g2 g2 f|
de e2 dAA|ee gf dAA|g z gf edA|d2 ef f2 e:|

